rospo-dark/24x24/actions/transform-scale-vertical.svg

<svg height="24" viewBox="0 0 24 24" width="24" xmlns="http://www.w3.org/2000/svg"><path d="m3.5 0a .50048.50038 0 0 0 -.5.5v7.0097656 8.9804684 7.009766a.50048.50038 0 0 0  .5.5h17a .50048.50038 0 0 0  .5-.5v-7.007812-8.9804692-7.0117188a.50048.50038 0 0 0 -.5-.5zm.5 1h11.542969l-2.462891 2.9550781h2.001953v3.0546875h-11.082031zm11.621094 0h4.376953v6.0097656h-3.914063v-3.0546875h2zm .46289 7.0097656h3.914063v7.9804684h-3.914063zm-12.083984.0019532h11.082031v7.9785152h-11.082031zm12.083984 8.9785152h3.914063v6.007813h-4.376953l2.46289-2.955078h-2zm-12.083984.001954h11.082031v3.052734h-2l2.462891 2.955078h-11.5429689-.0019531z" fill="#d3dae3"/><path d="m3.9921875.9921875v22.0156245h16.0156245v-22.0156245z" fill="#d3dae3" opacity=".3"/></svg>

<svg xmlns="http://www.w3.org/2000/svg" width="24" height="24" viewBox="0 0 24 24">
 <defs>
  <style id="current-color-scheme" type="text/css">
   .ColorScheme-Text { color:#d3dae3; } .ColorScheme-Highlight { color:#5294e2; }
  </style>
 </defs>
 <path style="fill:currentColor" class="ColorScheme-Text" d="M 3.5 0 A 0.50048 0.50038 0 0 0 3 0.5 L 3 7.5097656 L 3 16.490234 L 3 23.5 A 0.50048 0.50038 0 0 0 3.5 24 L 20.5 24 A 0.50048 0.50038 0 0 0 21 23.5 L 21 16.492188 L 21 7.5117188 L 21 0.5 A 0.50048 0.50038 0 0 0 20.5 0 L 3.5 0 z M 4 1 L 15.542969 1 L 13.080078 3.9550781 L 15.082031 3.9550781 L 15.082031 7.0097656 L 4 7.0097656 L 4 1 z M 15.621094 1 L 19.998047 1 L 19.998047 7.0097656 L 16.083984 7.0097656 L 16.083984 3.9550781 L 18.083984 3.9550781 L 15.621094 1 z M 16.083984 8.0097656 L 19.998047 8.0097656 L 19.998047 15.990234 L 16.083984 15.990234 L 16.083984 8.0097656 z M 4 8.0117188 L 15.082031 8.0117188 L 15.082031 15.990234 L 4 15.990234 L 4 8.0117188 z M 16.083984 16.990234 L 19.998047 16.990234 L 19.998047 22.998047 L 15.621094 22.998047 L 18.083984 20.042969 L 16.083984 20.042969 L 16.083984 16.990234 z M 4 16.992188 L 15.082031 16.992188 L 15.082031 20.044922 L 13.082031 20.044922 L 15.544922 23 L 4.0019531 23 L 4 23 L 4 16.992188 z"/>
 <path style="fill:currentColor;opacity:0.3" class="ColorScheme-Text" d="M 3.9921875 0.9921875 L 3.9921875 23.007812 L 20.007812 23.007812 L 20.007812 0.9921875 L 3.9921875 0.9921875 z"/>
</svg>
